src/resources/images/icons/duck.svg

<svg width="24" height="24" viewBox="0 0 24 24" fill="none" xmlns="http://www.w3.org/2000/svg">
<path fill-rule="evenodd" clip-rule="evenodd" d="M11.9939 4.40513C12.2547 4.58339 12.5002 4.78659 12.7266 5.01318C13.6878 5.97576 14.2279 7.27969 14.2279 8.64028C14.2279 10.3837 13.3562 11.9222 12.0337 12.8454C12.3993 12.8801 12.7753 12.8997 13.1593 12.9197C14.4774 12.9884 15.8903 13.0621 17.3037 13.7688C19.8684 15.3939 21.6608 13.9283 22.5158 12.8827C22.6792 12.6829 23.0335 12.7993 22.9974 13.0549C22.6752 15.34 21.1786 20.8753 14.2279 23H8.07668C8.07668 23 2.95096 23 2.95096 17.8717C2.95096 16.381 3.67276 15.3717 4.30042 14.494C4.61746 14.0507 4.91049 13.6409 5.07434 13.2197C4.3793 13.4577 3.08935 13.2282 2.17157 12.9651C1.92981 12.8958 1.9693 12.5924 2.2186 12.5594C3.15056 12.4357 4.52895 12.1931 5.00114 11.7994C5.01265 11.7965 5.02457 11.7941 5.03683 11.7922C5.02551 11.7674 5.01359 11.7425 5.00105 11.7174C2.13989 11.7174 1.27481 9.96981 1.01325 8.91302C0.925297 8.55767 1.29102 8.31225 1.64537 8.40347C2.48974 8.62084 3.37789 8.55669 3.97552 8.28062C4.17063 5.61408 6.39574 3.51113 9.10232 3.51113C9.29412 3.51113 9.48483 3.5219 9.67364 3.54309C10.4987 3.03556 10.9811 2.25288 11.0254 2C11.2127 2.12829 11.7971 3.01332 11.4144 3.87846C11.7892 3.59035 12.1806 3.38437 12.3626 3.33558C12.1619 3.68344 12.0483 4.05013 11.9939 4.40513ZM7.5645 6.58829C6.71487 6.58829 6.02669 7.27777 6.02669 8.12686C6.02669 8.96854 6.70137 8.96848 7.53943 8.96839H7.58955C8.4267 8.96848 9.10232 8.96854 9.10232 8.12686C9.10232 7.27777 8.41318 6.58829 7.5645 6.58829ZM16.23 16.0327C16.5085 16.165 16.6396 16.5282 16.5228 16.8438C15.9728 18.3303 13.9376 20.9606 10.1418 20.3153C9.8432 20.2646 9.63742 19.9491 9.68222 19.6106C9.72701 19.2722 10.0054 19.0389 10.304 19.0897C13.5068 19.6342 15.1167 17.4393 15.5144 16.3645C15.6312 16.0489 15.9516 15.9003 16.23 16.0327Z" fill="black"/>
</svg>

<svg xmlns="http://www.w3.org/2000/svg" fill="none" viewBox="0 0 24 24"><path fill="#000" fill-rule="evenodd" d="M11.994 4.405a5.132 5.132 0 0 1 2.234 4.235 5.122 5.122 0 0 1-2.194 4.205c.365.035.741.055 1.125.075 1.318.068 2.731.142 4.145.849 2.564 1.625 4.357.16 5.212-.886.163-.2.518-.084.481.172-.322 2.285-1.818 7.82-8.77 9.945h-6.15S2.95 23 2.95 17.872c0-1.491.722-2.5 1.35-3.378.316-.443.61-.853.773-1.274-.695.238-1.985.008-2.902-.255-.242-.07-.203-.373.047-.406.932-.123 2.31-.366 2.782-.76a.392.392 0 0 1 .036-.007A2.36 2.36 0 0 0 5 11.717c-2.861 0-3.726-1.747-3.988-2.804-.088-.355.278-.6.632-.51.845.218 1.733.154 2.33-.122a5.149 5.149 0 0 1 5.699-4.738c.825-.507 1.307-1.29 1.351-1.543.188.128.772 1.013.39 1.878.374-.288.766-.494.948-.542-.201.347-.315.714-.37 1.07Zm-4.43 2.183c-.85 0-1.537.69-1.537 1.539 0 .842.674.841 1.512.841h.05c.838 0 1.513 0 1.513-.841 0-.85-.689-1.539-1.538-1.539Zm8.666 9.445c.279.132.41.495.293.81-.55 1.487-2.585 4.118-6.381 3.472-.299-.05-.505-.366-.46-.704.045-.339.323-.572.622-.521 3.203.544 4.813-1.65 5.21-2.726.117-.315.438-.464.716-.331Z" clip-rule="evenodd"/></svg>
